!!!COM: nobuo-uematsu
!!!OTL: locke-theme
!!!RNB: hooktheoryid: BbWgMBOzxlX
**kern	**text
*clefG2	*
*k[f#]	*
*M4/4	*
=1	=1
2g	G
4d	.
4g	.
=2	=2
2.a	D/F#
4dd	.
=3	=3
[2ccL	C/E
4cc]J	D7/F#
4b	.
=4	=4
[4gL	G
[4g]JL	Amin7
4g]J]J	G/B
16g	C
16cc	.
8ee	.
=5	=5
2ff	A#maj7
8ee	Amin7
8dd	.
[4cc	.
=6	=6
[2ccL	G#maj7
4cc]J	D7sus4
16b	.
16cc	.
8dd	.
=7	=7
[2.bL	G
4b]J	G/D
=8	=8
1r	G
*-	*-